src/components/assets/coming-soon.svg

<svg fill="none" height="132" viewBox="0 0 379 132" width="379" xmlns="http://www.w3.org/2000/svg" xmlns:xlink="http://www.w3.org/1999/xlink"><filter id="a" color-interpolation-filters="sRGB" filterUnits="userSpaceOnUse" height="116" width="116" x="10" y="12"><feFlood flood-opacity="0" result="BackgroundImageFix"/><feColorMatrix in="SourceAlpha" type="matrix" values="0 0 0 0 0 0 0 0 0 0 0 0 0 0 0 0 0 0 127 0"/><feOffset dy="4"/><feGaussianBlur stdDeviation="2.5"/><feColorMatrix type="matrix" values="0 0 0 0 0 0 0 0 0 0 0 0 0 0 0 0 0 0 0.15 0"/><feBlend in2="BackgroundImageFix" mode="normal" result="effect1_dropShadow"/><feBlend in="SourceGraphic" in2="effect1_dropShadow" mode="normal" result="shape"/></filter><linearGradient id="b" gradientUnits="userSpaceOnUse" x1="50" x2="81.1709" y1="86.149" y2="57.9817"><stop offset="0" stop-color="#ffc58f"/><stop offset="1" stop-color="#ff7c7c"/></linearGradient><rect fill="#fff" height="132" rx="66" width="379"/><rect height="130.5" rx="65.25" stroke="#d4dce3" stroke-opacity=".5" stroke-width="1.5" width="377.5" x=".75" y=".75"/><path d="m147.606 95h8.624v-1.562h-6.886v-11.946h-1.738zm16.942-2.926c-.264 1.1-1.166 1.716-2.376 1.716-1.65 0-2.816-1.276-2.838-3.366h6.908v-.594c0-2.838-1.43-4.796-4.114-4.796-2.662 0-4.444 2.178-4.444 5.104 0 3.014 1.826 5.06 4.488 5.06 2.2 0 3.586-1.276 3.938-3.124zm-2.398-5.632c1.628 0 2.398 1.276 2.42 2.728h-5.192c.242-1.716 1.298-2.728 2.772-2.728zm13.377 8.558v-6.512c0-2.134-1.386-3.454-3.718-3.454-1.87 0-3.322 1.122-3.652 2.772h1.628c.308-.902.968-1.342 2.002-1.342 1.408 0 2.156.88 2.156 2.09v1.232c-.418-.374-1.452-.792-2.464-.792-2.09 0-3.74 1.232-3.74 3.058 0 1.936 1.65 3.124 3.63 3.124 1.166 0 2.2-.506 2.574-.902v.726zm-1.584-2.42c-.286.726-1.276 1.21-2.288 1.21-1.188 0-2.332-.55-2.332-1.738 0-1.166 1.144-1.694 2.332-1.694 1.012 0 2.002.484 2.288 1.21zm9.42-7.392c-.176-.088-.528-.154-.946-.154-1.078 0-2.002.638-2.42 1.474v-1.276h-1.65v9.768h1.65v-6.556c.33-1.144 1.232-1.826 2.266-1.826.418 0 .836.088 1.1.264zm2.052 9.812h1.65v-6.622c.352-1.056 1.342-1.826 2.486-1.826 1.474 0 2.156.946 2.156 2.31v6.138h1.672v-6.402c0-2.134-1.21-3.564-3.432-3.564-1.254 0-2.31.66-2.882 1.43v-1.232h-1.65zm22.55-8.404c-.462-.924-1.408-1.562-2.64-1.562-1.21 0-2.156.572-2.64 1.342v-1.144h-1.65v9.768h1.65v-6.732c.308-1.056 1.166-1.738 2.156-1.738 1.254 0 1.848.902 1.848 2.266v6.204h1.65v-6.732c.308-1.056 1.166-1.738 2.156-1.738 1.254 0 1.848.902 1.848 2.266v6.204h1.672v-6.468c0-2.112-1.1-3.498-3.08-3.498-1.364 0-2.354.682-2.97 1.562zm17.111 3.52c0-2.992-1.826-5.082-4.488-5.082-2.684 0-4.488 2.09-4.488 5.082s1.804 5.082 4.488 5.082c2.662 0 4.488-2.09 4.488-5.082zm-1.672 0c0 2.134-1.056 3.63-2.816 3.63s-2.816-1.496-2.816-3.63 1.056-3.63 2.816-3.63 2.816 1.496 2.816 3.63zm8.922-4.928c-.176-.088-.528-.154-.946-.154-1.078 0-2.002.638-2.42 1.474v-1.276h-1.65v9.768h1.65v-6.556c.33-1.144 1.232-1.826 2.266-1.826.418 0 .836.088 1.1.264zm7.933 6.886c-.264 1.1-1.166 1.716-2.376 1.716-1.65 0-2.816-1.276-2.838-3.366h6.908v-.594c0-2.838-1.43-4.796-4.114-4.796-2.662 0-4.444 2.178-4.444 5.104 0 3.014 1.826 5.06 4.488 5.06 2.2 0 3.586-1.276 3.938-3.124zm-2.398-5.632c1.628 0 2.398 1.276 2.42 2.728h-5.192c.242-1.716 1.298-2.728 2.772-2.728z" fill="#ff9683"/><path d="m146.999 51.711c0 5.157 3.24 8.532 7.425 8.532 3.456 0 5.778-2.025 6.453-5.13h-2.106c-.675 1.944-2.052 3.213-4.347 3.213-3.186 0-5.292-2.7-5.292-6.615 0-3.942 2.133-6.615 5.292-6.615 2.295 0 3.672 1.269 4.347 3.186h2.106c-.675-3.078-2.97-5.103-6.453-5.103-4.185 0-7.425 3.375-7.425 8.532zm26.861 2.295c0-3.672-2.241-6.237-5.508-6.237-3.294 0-5.508 2.565-5.508 6.237s2.214 6.237 5.508 6.237c3.267 0 5.508-2.565 5.508-6.237zm-2.052 0c0 2.619-1.296 4.455-3.456 4.455s-3.456-1.836-3.456-4.455 1.296-4.455 3.456-4.455 3.456 1.836 3.456 4.455zm13.299-4.32c-.567-1.134-1.728-1.917-3.24-1.917-1.485 0-2.646.702-3.24 1.647v-1.404h-2.025v11.988h2.025v-8.262c.378-1.296 1.431-2.133 2.646-2.133 1.539 0 2.268 1.107 2.268 2.781v7.614h2.025v-8.262c.378-1.296 1.431-2.133 2.646-2.133 1.539 0 2.268 1.107 2.268 2.781v7.614h2.052v-7.938c0-2.592-1.35-4.293-3.78-4.293-1.674 0-2.889.837-3.645 1.917zm12.873-1.674h-2.025v11.988h2.025zm.297-3.618c0-.729-.594-1.296-1.323-1.296-.702 0-1.296.567-1.296 1.296 0 .702.594 1.296 1.296 1.296.729 0 1.323-.594 1.323-1.296zm3.321 15.606h2.025v-8.127c.432-1.296 1.647-2.241 3.051-2.241 1.809 0 2.646 1.161 2.646 2.835v7.533h2.052v-7.857c0-2.619-1.485-4.374-4.212-4.374-1.539 0-2.835.81-3.537 1.755v-1.512h-2.025zm21.067-.81c0 2.592-1.134 3.942-3.294 3.942-1.647 0-2.781-.729-3.132-2.241h-1.998c.378 2.457 2.214 3.969 5.13 3.969 3.078 0 5.346-1.863 5.346-5.805v-11.043h-2.052v1.35c-.594-.837-1.863-1.593-3.348-1.593-3.51 0-5.373 2.889-5.373 6.075 0 3.159 1.863 6.075 5.373 6.075 1.485 0 2.754-.783 3.348-1.62zm0-2.97c-.621 1.134-1.755 1.863-3.051 1.863-2.268 0-3.591-1.782-3.591-4.239 0-2.484 1.323-4.266 3.591-4.266 1.296 0 2.43.729 3.051 1.863zm10.629.486c.378 2.214 2.295 3.537 4.914 3.537 2.565 0 4.455-1.35 4.455-3.618 0-1.674-.999-2.808-3.051-3.348l-2.322-.567c-1.134-.324-1.674-.702-1.674-1.512 0-1.161 1.107-1.728 2.295-1.728 1.458 0 2.295.621 2.646 1.701h2.025c-.432-2.106-1.998-3.402-4.644-3.402-2.43 0-4.293 1.404-4.293 3.537 0 1.863 1.188 2.727 2.889 3.159l2.376.621c1.242.324 1.782.837 1.782 1.674 0 1.215-1.026 1.782-2.457 1.782-1.404 0-2.457-.594-2.835-1.836zm22.331-2.7c0-3.672-2.241-6.237-5.508-6.237-3.294 0-5.508 2.565-5.508 6.237s2.214 6.237 5.508 6.237c3.267 0 5.508-2.565 5.508-6.237zm-2.052 0c0 2.619-1.296 4.455-3.456 4.455s-3.456-1.836-3.456-4.455 1.296-4.455 3.456-4.455 3.456 1.836 3.456 4.455zm14.998 0c0-3.672-2.241-6.237-5.508-6.237-3.294 0-5.508 2.565-5.508 6.237s2.214 6.237 5.508 6.237c3.267 0 5.508-2.565 5.508-6.237zm-2.052 0c0 2.619-1.296 4.455-3.456 4.455s-3.456-1.836-3.456-4.455 1.296-4.455 3.456-4.455 3.456 1.836 3.456 4.455zm4.794 5.994h2.025v-8.127c.432-1.296 1.647-2.241 3.051-2.241 1.809 0 2.646 1.161 2.646 2.835v7.533h2.052v-7.857c0-2.619-1.485-4.374-4.212-4.374-1.539 0-2.835.81-3.537 1.755v-1.512h-2.025z" fill="#000"/><g filter="url(#a)"><circle cx="68" cy="66" fill="#fff" r="53"/></g><path d="m50 62.2876h37v27.8767h-37z" fill="url(#b)" fill-opacity=".6"/><path d="m50 62.2876h37v27.8767h-37z" stroke="#ff8a8a"/><path d="m81.4246 66.5959v-12.6712c0-7.1381-5.7865-12.9247-12.9246-12.9247s-12.9247 5.7866-12.9247 12.9247v12.6712" stroke="#ffd7b1" stroke-width="5"/></svg>

<svg width="379" height="132" viewBox="0 0 379 132" fill="none" xmlns="http://www.w3.org/2000/svg">
<rect width="379" height="132" rx="66" fill="white"/>
<rect x="0.75" y="0.75" width="377.5" height="130.5" rx="65.25" stroke="#D4DCE3" stroke-opacity="0.5" stroke-width="1.5"/>
<path d="M147.606 95H156.23V93.438H149.344V81.492H147.606V95ZM164.548 92.074C164.284 93.174 163.382 93.79 162.172 93.79C160.522 93.79 159.356 92.514 159.334 90.424H166.242V89.83C166.242 86.992 164.812 85.034 162.128 85.034C159.466 85.034 157.684 87.212 157.684 90.138C157.684 93.152 159.51 95.198 162.172 95.198C164.372 95.198 165.758 93.922 166.11 92.074H164.548ZM162.15 86.442C163.778 86.442 164.548 87.718 164.57 89.17H159.378C159.62 87.454 160.676 86.442 162.15 86.442ZM175.527 95V88.488C175.527 86.354 174.141 85.034 171.809 85.034C169.939 85.034 168.487 86.156 168.157 87.806H169.785C170.093 86.904 170.753 86.464 171.787 86.464C173.195 86.464 173.943 87.344 173.943 88.554V89.786C173.525 89.412 172.491 88.994 171.479 88.994C169.389 88.994 167.739 90.226 167.739 92.052C167.739 93.988 169.389 95.176 171.369 95.176C172.535 95.176 173.569 94.67 173.943 94.274V95H175.527ZM173.943 92.58C173.657 93.306 172.667 93.79 171.655 93.79C170.467 93.79 169.323 93.24 169.323 92.052C169.323 90.886 170.467 90.358 171.655 90.358C172.667 90.358 173.657 90.842 173.943 91.568V92.58ZM183.363 85.188C183.187 85.1 182.835 85.034 182.417 85.034C181.339 85.034 180.415 85.672 179.997 86.508V85.232H178.347V95H179.997V88.444C180.327 87.3 181.229 86.618 182.263 86.618C182.681 86.618 183.099 86.706 183.363 86.882V85.188ZM185.415 95H187.065V88.378C187.417 87.322 188.407 86.552 189.551 86.552C191.025 86.552 191.707 87.498 191.707 88.862V95H193.379V88.598C193.379 86.464 192.169 85.034 189.947 85.034C188.693 85.034 187.637 85.694 187.065 86.464V85.232H185.415V95ZM207.965 86.596C207.503 85.672 206.557 85.034 205.325 85.034C204.115 85.034 203.169 85.606 202.685 86.376V85.232H201.035V95H202.685V88.268C202.993 87.212 203.851 86.53 204.841 86.53C206.095 86.53 206.689 87.432 206.689 88.796V95H208.339V88.268C208.647 87.212 209.505 86.53 210.495 86.53C211.749 86.53 212.343 87.432 212.343 88.796V95H214.015V88.532C214.015 86.42 212.915 85.034 210.935 85.034C209.571 85.034 208.581 85.716 207.965 86.596ZM225.076 90.116C225.076 87.124 223.25 85.034 220.588 85.034C217.904 85.034 216.1 87.124 216.1 90.116C216.1 93.108 217.904 95.198 220.588 95.198C223.25 95.198 225.076 93.108 225.076 90.116ZM223.404 90.116C223.404 92.25 222.348 93.746 220.588 93.746C218.828 93.746 217.772 92.25 217.772 90.116C217.772 87.982 218.828 86.486 220.588 86.486C222.348 86.486 223.404 87.982 223.404 90.116ZM232.326 85.188C232.15 85.1 231.798 85.034 231.38 85.034C230.302 85.034 229.378 85.672 228.96 86.508V85.232H227.31V95H228.96V88.444C229.29 87.3 230.192 86.618 231.226 86.618C231.644 86.618 232.062 86.706 232.326 86.882V85.188ZM240.259 92.074C239.995 93.174 239.093 93.79 237.883 93.79C236.233 93.79 235.067 92.514 235.045 90.424H241.953V89.83C241.953 86.992 240.523 85.034 237.839 85.034C235.177 85.034 233.395 87.212 233.395 90.138C233.395 93.152 235.221 95.198 237.883 95.198C240.083 95.198 241.469 93.922 241.821 92.074H240.259ZM237.861 86.442C239.489 86.442 240.259 87.718 240.281 89.17H235.089C235.331 87.454 236.387 86.442 237.861 86.442Z" fill="#FF9683"/>
<path d="M146.999 51.711C146.999 56.868 150.239 60.243 154.424 60.243C157.88 60.243 160.202 58.218 160.877 55.113H158.771C158.096 57.057 156.719 58.326 154.424 58.326C151.238 58.326 149.132 55.626 149.132 51.711C149.132 47.769 151.265 45.096 154.424 45.096C156.719 45.096 158.096 46.365 158.771 48.282H160.877C160.202 45.204 157.907 43.179 154.424 43.179C150.239 43.179 146.999 46.554 146.999 51.711ZM173.86 54.006C173.86 50.334 171.619 47.769 168.352 47.769C165.058 47.769 162.844 50.334 162.844 54.006C162.844 57.678 165.058 60.243 168.352 60.243C171.619 60.243 173.86 57.678 173.86 54.006ZM171.808 54.006C171.808 56.625 170.512 58.461 168.352 58.461C166.192 58.461 164.896 56.625 164.896 54.006C164.896 51.387 166.192 49.551 168.352 49.551C170.512 49.551 171.808 51.387 171.808 54.006ZM185.107 49.686C184.54 48.552 183.379 47.769 181.867 47.769C180.382 47.769 179.221 48.471 178.627 49.416V48.012H176.602V60H178.627V51.738C179.005 50.442 180.058 49.605 181.273 49.605C182.812 49.605 183.541 50.712 183.541 52.386V60H185.566V51.738C185.944 50.442 186.997 49.605 188.212 49.605C189.751 49.605 190.48 50.712 190.48 52.386V60H192.532V52.062C192.532 49.47 191.182 47.769 188.752 47.769C187.078 47.769 185.863 48.606 185.107 49.686ZM197.98 48.012H195.955V60H197.98V48.012ZM198.277 44.394C198.277 43.665 197.683 43.098 196.954 43.098C196.252 43.098 195.658 43.665 195.658 44.394C195.658 45.096 196.252 45.69 196.954 45.69C197.683 45.69 198.277 45.096 198.277 44.394ZM201.598 60H203.623V51.873C204.055 50.577 205.27 49.632 206.674 49.632C208.483 49.632 209.32 50.793 209.32 52.467V60H211.372V52.143C211.372 49.524 209.887 47.769 207.16 47.769C205.621 47.769 204.325 48.579 203.623 49.524V48.012H201.598V60ZM222.665 59.19C222.665 61.782 221.531 63.132 219.371 63.132C217.724 63.132 216.59 62.403 216.239 60.891H214.241C214.619 63.348 216.455 64.86 219.371 64.86C222.449 64.86 224.717 62.997 224.717 59.055V48.012H222.665V49.362C222.071 48.525 220.802 47.769 219.317 47.769C215.807 47.769 213.944 50.658 213.944 53.844C213.944 57.003 215.807 59.919 219.317 59.919C220.802 59.919 222.071 59.136 222.665 58.299V59.19ZM222.665 56.22C222.044 57.354 220.91 58.083 219.614 58.083C217.346 58.083 216.023 56.301 216.023 53.844C216.023 51.36 217.346 49.578 219.614 49.578C220.91 49.578 222.044 50.307 222.665 51.441V56.22ZM233.294 56.706C233.672 58.92 235.589 60.243 238.208 60.243C240.773 60.243 242.663 58.893 242.663 56.625C242.663 54.951 241.664 53.817 239.612 53.277L237.29 52.71C236.156 52.386 235.616 52.008 235.616 51.198C235.616 50.037 236.723 49.47 237.911 49.47C239.369 49.47 240.206 50.091 240.557 51.171H242.582C242.15 49.065 240.584 47.769 237.938 47.769C235.508 47.769 233.645 49.173 233.645 51.306C233.645 53.169 234.833 54.033 236.534 54.465L238.91 55.086C240.152 55.41 240.692 55.923 240.692 56.76C240.692 57.975 239.666 58.542 238.235 58.542C236.831 58.542 235.778 57.948 235.4 56.706H233.294ZM255.625 54.006C255.625 50.334 253.384 47.769 250.117 47.769C246.823 47.769 244.609 50.334 244.609 54.006C244.609 57.678 246.823 60.243 250.117 60.243C253.384 60.243 255.625 57.678 255.625 54.006ZM253.573 54.006C253.573 56.625 252.277 58.461 250.117 58.461C247.957 58.461 246.661 56.625 246.661 54.006C246.661 51.387 247.957 49.551 250.117 49.551C252.277 49.551 253.573 51.387 253.573 54.006ZM268.571 54.006C268.571 50.334 266.33 47.769 263.063 47.769C259.769 47.769 257.555 50.334 257.555 54.006C257.555 57.678 259.769 60.243 263.063 60.243C266.33 60.243 268.571 57.678 268.571 54.006ZM266.519 54.006C266.519 56.625 265.223 58.461 263.063 58.461C260.903 58.461 259.607 56.625 259.607 54.006C259.607 51.387 260.903 49.551 263.063 49.551C265.223 49.551 266.519 51.387 266.519 54.006ZM271.313 60H273.338V51.873C273.77 50.577 274.985 49.632 276.389 49.632C278.198 49.632 279.035 50.793 279.035 52.467V60H281.087V52.143C281.087 49.524 279.602 47.769 276.875 47.769C275.336 47.769 274.04 48.579 273.338 49.524V48.012H271.313V60Z" fill="black"/>
<g filter="url(#filter0_d)">
<circle cx="68" cy="66" r="53" fill="white"/>
</g>
<rect x="50" y="62.2876" width="37" height="27.8767" fill="url(#paint0_linear)" fill-opacity="0.6"/>
<rect x="50" y="62.2876" width="37" height="27.8767" stroke="#FF8A8A"/>
<path d="M81.4246 66.5959V53.9247C81.4246 46.7866 75.6381 41 68.5 41C61.3619 41 55.5753 46.7866 55.5753 53.9247V66.5959" stroke="#FFD7B1" stroke-width="5"/>
<defs>
<filter id="filter0_d" x="10" y="12" width="116" height="116" filterUnits="userSpaceOnUse" color-interpolation-filters="sRGB">
<feFlood flood-opacity="0" result="BackgroundImageFix"/>
<feColorMatrix in="SourceAlpha" type="matrix" values="0 0 0 0 0 0 0 0 0 0 0 0 0 0 0 0 0 0 127 0"/>
<feOffset dy="4"/>
<feGaussianBlur stdDeviation="2.5"/>
<feColorMatrix type="matrix" values="0 0 0 0 0 0 0 0 0 0 0 0 0 0 0 0 0 0 0.15 0"/>
<feBlend mode="normal" in2="BackgroundImageFix" result="effect1_dropShadow"/>
<feBlend mode="normal" in="SourceGraphic" in2="effect1_dropShadow" result="shape"/>
</filter>
<linearGradient id="paint0_linear" x1="50" y1="86.149" x2="81.1709" y2="57.9817" gradientUnits="userSpaceOnUse">
<stop stop-color="#FFC58F"/>
<stop offset="1" stop-color="#FF7C7C"/>
</linearGradient>
</defs>
</svg>
